X:128
T:score211
L:1/8
Q:1/4=96
M:2/2
I:linebreak $
K:Eb
!p! .G.c.d | (e3 f d3 e) | c4 (c=Bcd |$ edef) .g2 .g2 | g6 (fg) | (a4 d2) (ef) |$ (g4 c2) (cd) | %7
 .e2 (ef) .d2 (de) | c2 z2 z4 |] %9
